src/resources/assets/up.svg

<svg xmlns="http://www.w3.org/2000/svg" width="16" height="16"><path d="M 7.5 13.5 C 7.5 13.777344 7.722656 14 8 14 C 8.277344 14 8.5 13.777344 8.5 13.5 L 8.5 3.804688 L 12.128906 7.835938 C 12.3125 8.039062 12.628906 8.054688 12.835938 7.871094 C 13.039062 7.6875 13.054688 7.371094 12.871094 7.164062 L 8.371094 2.164062 C 8.277344 2.058594 8.140625 2 8 2 C 7.859375 2 7.722656 2.058594 7.628906 2.164062 L 3.128906 7.164062 C 2.945312 7.371094 2.960938 7.6875 3.164062 7.871094 C 3.371094 8.054688 3.6875 8.039062 3.871094 7.835938 L 7.5 3.804688 Z M 7.5 13.5" fill="#ddd"/></svg>

<svg xmlns="http://www.w3.org/2000/svg" width="16" height="16"><path d="M7.5 13.5c0 .277.223.5.5.5s.5-.223.5-.5V3.805l3.629 4.03c.184.204.5.22.707.036a.504.504 0 00.035-.707l-4.5-5A.497.497 0 008 2a.497.497 0 00-.371.164l-4.5 5a.504.504 0 00.035.707.504.504 0 00.707-.035L7.5 3.805zm0 0" fill="#ddd"/></svg>
